exports/total-disease-burden-by-cause_v2_850x600.svg

<svg xmlns="http://www.w3.org/2000/svg" version="1.1" style="background-color:#fff;-webkit-font-smoothing:antialiased" width="850" height="600" font-family="'Helvetica Neue',Helvetica,Arial,sans-serif" font-size="18" text-rendering="optimizeLegibility"><g class="ChartTab"><g class="HeaderView"><g opacity=".8" transform="matrix(.31 0 0 .31 770 15)"><a xmlns:xlink="http://www.w3.org/1999/xlink" xlink:href="https://ourworldindata.org" target="_blank"><g><path fill="#1B2543" d="M0 0h211.2v130.1H0z"/><path fill="#E63912" d="M0 112.2h211.2v17.9H0z"/><g><path fill="none" d="M1.2 12.3h210.2v99.2H1.2z"/><path fill="#FFF" d="M37.8 32.2c0 12.7-7.7 19.4-17.1 19.4-9.7 0-16.6-7.5-16.6-18.7 0-11.7 7.3-19.3 17.1-19.3 10.1.1 16.6 7.7 16.6 18.6zm-28.6.6c0 7.9 4.3 14.9 11.8 14.9 7.5 0 11.8-6.9 11.8-15.3 0-7.3-3.8-14.9-11.8-14.9-7.9 0-11.8 7.3-11.8 15.3zM62.7 43.8c0 2.7.1 5.1.2 7.2h-4.3l-.3-4.3h-.1c-1.3 2.1-4 4.9-8.8 4.9-4.2 0-9.1-2.3-9.1-11.6V24.6h4.8v14.6c0 5 1.5 8.4 5.9 8.4 3.2 0 5.5-2.2 6.3-4.4.3-.7.4-1.6.4-2.5V24.6h4.8v19.2zM67.3 32.8c0-3.1-.1-5.8-.2-8.2h4.2l.2 5.2h.2c1.2-3.5 4.1-5.8 7.3-5.8.5 0 .9.1 1.4.2v4.5c-.5-.1-1-.2-1.6-.2-3.4 0-5.8 2.6-6.5 6.2-.1.7-.2 1.4-.2 2.2V51h-4.8V32.8zM95.4 51L86 14.2h5l4.4 18.6c1.1 4.6 2.1 9.2 2.7 12.7h.1c.6-3.7 1.8-8 3-12.8l4.9-18.5h5l4.5 18.7c1 4.4 2 8.7 2.6 12.6h.1c.8-4 1.8-8.1 3-12.7l4.9-18.5h4.9L120.6 51h-5L111 31.9c-1.1-4.7-1.9-8.3-2.4-12h-.1c-.7 3.7-1.5 7.3-2.8 12L100.4 51h-5zM154.9 37.6c0 9.8-6.8 14-13.2 14-7.2 0-12.7-5.2-12.7-13.6 0-8.8 5.8-14 13.1-14 7.7 0 12.8 5.5 12.8 13.6zm-21 .3c0 5.8 3.3 10.1 8 10.1 4.6 0 8-4.3 8-10.3 0-4.5-2.2-10.1-7.9-10.1s-8.1 5.2-8.1 10.3zM158.2 32.8c0-3.1-.1-5.8-.2-8.2h4.2l.2 5.2h.2c1.2-3.5 4.1-5.8 7.3-5.8.5 0 .9.1 1.4.2v4.5c-.5-.1-1-.2-1.6-.2-3.4 0-5.8 2.6-6.5 6.2-.1.7-.2 1.4-.2 2.2V51h-4.8V32.8zM173.5 12.3h4.8V51h-4.8V12.3zM206.5 12.3v31.9c0 2.3.1 5 .2 6.8h-4.3l-.2-4.6h-.2c-1.5 2.9-4.7 5.2-9 5.2-6.4 0-11.3-5.4-11.3-13.4-.1-8.8 5.4-14.2 11.9-14.2 4 0 6.8 1.9 8 4h.1V12.3h4.8zm-4.8 23.1c0-.6-.1-1.4-.2-2a7 7 0 00-6.9-5.6c-5 0-7.9 4.4-7.9 10.2 0 5.3 2.6 9.8 7.8 9.8 3.2 0 6.2-2.1 7.1-5.7.2-.7.2-1.3.2-2.1v-4.6zM42.8 64c.1 1.6-1.1 2.9-3.1 2.9-1.7 0-2.9-1.3-2.9-2.9 0-1.7 1.3-3 3-3 1.9 0 3 1.3 3 3zm-5.4 33.8V71.4h4.8v26.4h-4.8zM47.5 78.6c0-2.7-.1-5-.2-7.1h4.3l.3 4.4h.1c1.3-2.5 4.4-5 8.8-5 3.7 0 9.4 2.2 9.4 11.2v15.8h-4.8V82.6c0-4.3-1.6-7.8-6.1-7.8-3.2 0-5.6 2.2-6.5 4.9-.2.6-.3 1.4-.3 2.2v15.9h-4.8V78.6zM84 61.6c2.9-.4 6.3-.8 10.1-.8 6.8 0 11.7 1.6 14.9 4.6 3.3 3 5.2 7.3 5.2 13.2 0 6-1.9 10.9-5.3 14.3-3.4 3.4-9.1 5.3-16.3 5.3-3.4 0-6.2-.2-8.6-.4V61.6zm4.8 32.5c1.2.2 3 .3 4.8.3 10.2 0 15.7-5.7 15.7-15.6.1-8.7-4.9-14.2-14.9-14.2-2.5 0-4.3.2-5.6.5v29zM132.1 97.8l-.4-3.3h-.2a9.79 9.79 0 01-8.1 3.9c-5.4 0-8.1-3.8-8.1-7.6 0-6.4 5.7-9.9 15.9-9.8v-.5c0-2.2-.6-6.1-6-6.1-2.5 0-5 .8-6.9 2l-1.1-3.2c2.2-1.4 5.4-2.3 8.7-2.3 8.1 0 10.1 5.5 10.1 10.8v9.9c0 2.3.1 4.5.4 6.3h-4.3zm-.7-13.4c-5.3-.1-11.2.8-11.2 5.9 0 3.1 2.1 4.6 4.5 4.6 3.4 0 5.6-2.2 6.4-4.4.2-.5.3-1 .3-1.5v-4.6zM146.6 63.9v7.6h6.9v3.7h-6.9v14.2c0 3.3.9 5.1 3.6 5.1 1.3 0 2.2-.2 2.8-.3l.2 3.6c-.9.4-2.4.7-4.3.7-2.2 0-4-.7-5.2-2-1.4-1.4-1.9-3.8-1.9-6.9V75.1h-4.1v-3.7h4.1v-6.3l4.8-1.2zM171.4 97.8l-.4-3.3h-.2a9.79 9.79 0 01-8.1 3.9c-5.4 0-8.1-3.8-8.1-7.6 0-6.4 5.7-9.9 15.9-9.8v-.5c0-2.2-.6-6.1-6-6.1-2.5 0-5 .8-6.9 2l-1.1-3.2c2.2-1.4 5.4-2.3 8.7-2.3 8.1 0 10.1 5.5 10.1 10.8v9.9c0 2.3.1 4.5.4 6.3h-4.3zm-.7-13.4c-5.3-.1-11.2.8-11.2 5.9 0 3.1 2.1 4.6 4.5 4.6 3.4 0 5.6-2.2 6.4-4.4.2-.5.3-1 .3-1.5v-4.6z"/></g></g></a></g><a href="https://ourworldindata.org/grapher/total-disease-burden-by-cause" target="_blank"><text font-size="27" x="15" y="36.6" fill="#555"><tspan x="15" y="36.6">Total disease burden by cause, World</tspan></text></a><text font-size="14.4" x="15" y="55.5" fill="#666"><tspan x="15" y="55.52">Total disease burden measured as the number of DALYs (Disability-Adjusted Life Years) lost per year. DALYs are</tspan><tspan x="15" y="71.36">used to measure total burden of disease - both from years of life lost and years lived with a disability. One DALY</tspan><tspan x="15" y="87.2">equals one lost year of healthy life.</tspan></text></g><g class="StackedArea"><defs><clipPath id="a"><path d="M97.6 0h820v894.2h-820z"/></clipPath></defs><g class="AxisBoxView"><g class="HorizontalAxis" fill="#666" text-anchor="middle" font-size="16.2"><text x="97.6" y="556.5">1990</text><text x="211.7" y="556.5">1995</text><text x="325.7" y="556.5">2000</text><text x="439.8" y="556.5">2005</text><text x="553.9" y="556.5">2010</text><text x="690.7" y="556.5">2016</text></g><g class="VerticalAxis" fill="#666" dominant-baseline="middle" text-anchor="end" font-size="16.2"><text x="92.6" y="535.3">0</text><text x="92.6" y="450.8">500 million</text><text x="92.6" y="366.3">1 billion</text><text x="92.6" y="281.8">1.5 billion</text><text x="92.6" y="197.3">2 billion</text><text x="92.6" y="112.8">2.5 billion</text></g><g class="AxisGridLines"><path stroke="#ccc" d="M97.6 535.3h593.13"/><path stroke="#ddd" stroke-dasharray="3,2" d="M97.6 450.8h593.13M97.6 366.3h593.13M97.6 281.8h593.13M97.6 197.3h593.13M97.6 112.8h593.13"/></g><g class="AxisGridLines" stroke="#ddd" stroke-dasharray="3,2"><path d="M97.6 535.3V109.4M211.7 535.3V109.4M325.7 535.3V109.4M439.8 535.3V109.4M553.9 535.3V109.4M667.9 535.3V109.4"/></g></g><g clip-path="url(#a)"><g class="HeightedLegend clickable"><g class="legendMark"><path fill="#818282" d="M695.73 151.55h10v2.5h-10z"/><text font-size="14.4" x="710.7" y="157.1" fill="#333"><tspan x="710.73" y="157.12">Injuries</tspan></text></g><g class="legendMark"><path fill="#e6332e" d="M695.73 229.55h10v2.5h-10z"/><text font-size="14.4" x="710.7" y="211.9" fill="#333"><tspan x="710.73" y="211.87">Communicable,</tspan><tspan x="710.73" y="227.71">maternal, neonatal,</tspan><tspan x="710.73" y="243.55">and nutritional</tspan><tspan x="710.73" y="259.39">diseases</tspan></text></g><g class="legendMark"><path fill="#3360a9" d="M695.73 410.05h10v2.5h-10z"/><text font-size="14.4" x="710.7" y="407.9" fill="#333"><tspan x="710.73" y="407.87">Non-communicable</tspan><tspan x="710.73" y="423.71">diseases (NCDs)</tspan></text></g></g><g class="Areas"><path d="M97.6 353.7l22.8-2.4 22.8-3.5 22.8-4 22.8-3.7 22.9-2.6 22.8-1.7 22.8-1.9 22.8-2.1 22.8-3 22.8-2.9 22.8-2.4 22.9-2.6 22.8-1.8 22.8-1.8 22.8-2.7 22.8-1 22.8-1.8 22.8-2.4 22.8-2.3 22.9-2.8 22.8-1.9 22.8-2.5 22.8-2.9 22.8-3.3 22.8-3.2 22.8-3.3.03 248.1H97.6" fill="#3360a9" fill-opacity=".7" class="World_0-area"/><path d="M97.6 165.4l22.8-.1 22.8-1.1 22.8-2 22.8-2.1 22.9-1.9 22.8.2 22.8.4 22.8-.3 22.8-1.5 22.8-1.7 22.8-.4 22.9-.8 22.8 1 22.8.8 22.8.1 22.8 2.3 22.8 1.9 22.8 1.2 22.8 1.5 22.9.8 22.8 2.7 22.8 2.3 22.8 1.9 22.8 1.4 22.8 1.7 22.8.7v112.8l-22.8 3.3-22.8 3.2-22.8 3.3-22.8 2.9-22.8 2.5-22.8 1.9-22.9 2.8-22.8 2.3-22.8 2.4-22.8 1.8-22.8 1-22.8 2.7-22.8 1.8-22.8 1.8-22.9 2.6-22.8 2.4-22.8 2.9-22.8 3-22.8 2.1-22.8 1.9-22.8 1.7-22.9 2.6-22.8 3.7-22.8 4-22.8 3.5-22.8 2.4" fill="#e6332e" fill-opacity=".7" class="World_1-area"/><path d="M97.6 121.5l22.8-1.4 22.8.4 22.8-3.1 22.8-7.7 22.9 3.3h22.8l22.8.5 22.8-.5 22.8-1.9 22.8-.8h22.8l22.9-.7 22.8.7 22.8-.9 22.8 1.9 22.8 3.1 22.8 1.7 22.8-.6 22.8 3.7 22.9-.8 22.8 4.2 22.8 2.5 22.8 1.9 22.8 1 22.8 1.7 22.8 1.5v43.2l-22.8-.7-22.8-1.7-22.8-1.4-22.8-1.9-22.8-2.3-22.8-2.7-22.9-.8-22.8-1.5-22.8-1.2-22.8-1.9-22.8-2.3-22.8-.1-22.8-.8-22.8-1-22.9.8-22.8.4-22.8 1.7-22.8 1.5-22.8.3-22.8-.4-22.8-.2-22.9 1.9-22.8 2.1-22.8 2-22.8 1.1-22.8.1" fill="#818282" fill-opacity=".7" class="World_2-area"/><path stroke-linecap="round" d="M97.6 353.7l22.8-2.4 22.8-3.5 22.8-4 22.8-3.7 22.9-2.6 22.8-1.7 22.8-1.9 22.8-2.1 22.8-3 22.8-2.9 22.8-2.4 22.9-2.6 22.8-1.8 22.8-1.8 22.8-2.7 22.8-1 22.8-1.8 22.8-2.4 22.8-2.3 22.9-2.8 22.8-1.9 22.8-2.5 22.8-2.9 22.8-3.3 22.8-3.2 22.8-3.3" stroke="#2B508D" stroke-opacity=".7" stroke-width=".5" fill="none" class="World_0-border"/><path stroke-linecap="round" d="M97.6 165.4l22.8-.1 22.8-1.1 22.8-2 22.8-2.1 22.9-1.9 22.8.2 22.8.4 22.8-.3 22.8-1.5 22.8-1.7 22.8-.4 22.9-.8 22.8 1 22.8.8 22.8.1 22.8 2.3 22.8 1.9 22.8 1.2 22.8 1.5 22.9.8 22.8 2.7 22.8 2.3 22.8 1.9 22.8 1.4 22.8 1.7 22.8.7" stroke="#C02B26" stroke-opacity=".7" stroke-width=".5" fill="none" class="World_1-border"/><path stroke-linecap="round" d="M97.6 121.5l22.8-1.4 22.8.4 22.8-3.1 22.8-7.7 22.9 3.3h22.8l22.8.5 22.8-.5 22.8-1.9 22.8-.8h22.8l22.9-.7 22.8.7 22.8-.9 22.8 1.9 22.8 3.1 22.8 1.7 22.8-.6 22.8 3.7 22.9-.8 22.8 4.2 22.8 2.5 22.8 1.9 22.8 1 22.8 1.7 22.8 1.5" stroke="#6C6D6D" stroke-opacity=".7" stroke-width=".5" fill="none" class="World_2-border"/></g></g></g><g class="SourcesFooter" fill="#777"><g class="clickable" fill="#777"><text font-size="12.6" x="15" y="581.6"><tspan x="15" y="581.58">Source: IHME, Global Burden of Disease</tspan></text></g><text font-size="12.6" x="649" y="581.6"><tspan x="649.02" y="581.58"><a target="_blank" href="https://ourworldindata.org" fill="#777">OurWorldInData.org</a> • <a href="http://creativecommons.org/licenses/by-sa/4.0/deed.en_US" target="_blank" fill="#777">CC BY-SA</a></tspan></text></g></g></svg>

<svg xmlns="http://www.w3.org/2000/svg" version="1.1" style="font-family: 'Helvetica Neue', Helvetica, Arial, sans-serif; font-size: 18px; background-color: white; text-rendering: optimizeLegibility; -webkit-font-smoothing: antialiased;" width="850" height="600"><g class="ChartTab"><g class="HeaderView"><g opacity="0.8" transform="translate(770, 15) scale(0.31)"><a xmlns:xlink="http://www.w3.org/1999/xlink" xlink:href="https://ourworldindata.org" target="_blank"><g><rect x="0" y="0" fill="#1B2543" width="211.2" height="130.1"/><rect x="0" y="112.2" fill="#E63912" width="211.2" height="17.9"/><g><rect x="1.2" y="12.3" fill="none" width="210.2" height="99.2"/><path fill="#FFFFFF" d="M37.8,32.2c0,12.7-7.7,19.4-17.1,19.4c-9.7,0-16.6-7.5-16.6-18.7c0-11.7,7.3-19.3,17.1-19.3 C31.3,13.7,37.8,21.3,37.8,32.2z M9.2,32.8c0,7.9,4.3,14.9,11.8,14.9c7.5,0,11.8-6.9,11.8-15.3c0-7.3-3.8-14.9-11.8-14.9 C13.1,17.5,9.2,24.8,9.2,32.8z"/><path fill="#FFFFFF" d="M62.7,43.8c0,2.7,0.1,5.1,0.2,7.2h-4.3l-0.3-4.3h-0.1c-1.3,2.1-4,4.9-8.8,4.9c-4.2,0-9.1-2.3-9.1-11.6 V24.6h4.8v14.6c0,5,1.5,8.4,5.9,8.4c3.2,0,5.5-2.2,6.3-4.4c0.3-0.7,0.4-1.6,0.4-2.5V24.6h4.8V43.8z"/><path fill="#FFFFFF" d="M67.3,32.8c0-3.1-0.1-5.8-0.2-8.2h4.2l0.2,5.2h0.2c1.2-3.5,4.1-5.8,7.3-5.8c0.5,0,0.9,0.1,1.4,0.2v4.5 c-0.5-0.1-1-0.2-1.6-0.2c-3.4,0-5.8,2.6-6.5,6.2c-0.1,0.7-0.2,1.4-0.2,2.2V51h-4.8V32.8z"/><path fill="#FFFFFF" d="M95.4,51l-9.4-36.8h5l4.4,18.6c1.1,4.6,2.1,9.2,2.7,12.7h0.1c0.6-3.7,1.8-8,3-12.8l4.9-18.5h5l4.5,18.7 c1,4.4,2,8.7,2.6,12.6h0.1c0.8-4,1.8-8.1,3-12.7l4.9-18.5h4.9L120.6,51h-5L111,31.9c-1.1-4.7-1.9-8.3-2.4-12h-0.1 c-0.7,3.7-1.5,7.3-2.8,12L100.4,51H95.4z"/><path fill="#FFFFFF" d="M154.9,37.6c0,9.8-6.8,14-13.2,14c-7.2,0-12.7-5.2-12.7-13.6c0-8.8,5.8-14,13.1-14 C149.8,24,154.9,29.5,154.9,37.6z M133.9,37.9c0,5.8,3.3,10.1,8,10.1c4.6,0,8-4.3,8-10.3c0-4.5-2.2-10.1-7.9-10.1 C136.3,27.6,133.9,32.8,133.9,37.9z"/><path fill="#FFFFFF" d="M158.2,32.8c0-3.1-0.1-5.8-0.2-8.2h4.2l0.2,5.2h0.2c1.2-3.5,4.1-5.8,7.3-5.8c0.5,0,0.9,0.1,1.4,0.2v4.5 c-0.5-0.1-1-0.2-1.6-0.2c-3.4,0-5.8,2.6-6.5,6.2c-0.1,0.7-0.2,1.4-0.2,2.2V51h-4.8V32.8z"/><path fill="#FFFFFF" d="M173.5,12.3h4.8V51h-4.8V12.3z"/><path fill="#FFFFFF" d="M206.5,12.3v31.9c0,2.3,0.1,5,0.2,6.8h-4.3l-0.2-4.6H202c-1.5,2.9-4.7,5.2-9,5.2 c-6.4,0-11.3-5.4-11.3-13.4c-0.1-8.8,5.4-14.2,11.9-14.2c4,0,6.8,1.9,8,4h0.1V12.3H206.5z M201.7,35.4c0-0.6-0.1-1.4-0.2-2 c-0.7-3.1-3.3-5.6-6.9-5.6c-5,0-7.9,4.4-7.9,10.2c0,5.3,2.6,9.8,7.8,9.8c3.2,0,6.2-2.1,7.1-5.7c0.2-0.7,0.2-1.3,0.2-2.1V35.4z"/><path fill="#FFFFFF" d="M42.8,64c0.1,1.6-1.1,2.9-3.1,2.9c-1.7,0-2.9-1.3-2.9-2.9c0-1.7,1.3-3,3-3C41.7,61,42.8,62.3,42.8,64z M37.4,97.8V71.4h4.8v26.4H37.4z"/><path fill="#FFFFFF" d="M47.5,78.6c0-2.7-0.1-5-0.2-7.1h4.3l0.3,4.4h0.1c1.3-2.5,4.4-5,8.8-5c3.7,0,9.4,2.2,9.4,11.2v15.8h-4.8 V82.6c0-4.3-1.6-7.8-6.1-7.8c-3.2,0-5.6,2.2-6.5,4.9c-0.2,0.6-0.3,1.4-0.3,2.2v15.9h-4.8V78.6z"/><path fill="#FFFFFF" d="M84,61.6c2.9-0.4,6.3-0.8,10.1-0.8c6.8,0,11.7,1.6,14.9,4.6c3.3,3,5.2,7.3,5.2,13.2c0,6-1.9,10.9-5.3,14.3 c-3.4,3.4-9.1,5.3-16.3,5.3c-3.4,0-6.2-0.2-8.6-0.4V61.6z M88.8,94.1c1.2,0.2,3,0.3,4.8,0.3c10.2,0,15.7-5.7,15.7-15.6 c0.1-8.7-4.9-14.2-14.9-14.2c-2.5,0-4.3,0.2-5.6,0.5V94.1z"/><path fill="#FFFFFF" d="M132.1,97.8l-0.4-3.3h-0.2c-1.5,2.1-4.3,3.9-8.1,3.9c-5.4,0-8.1-3.8-8.1-7.6c0-6.4,5.7-9.9,15.9-9.8v-0.5 c0-2.2-0.6-6.1-6-6.1c-2.5,0-5,0.8-6.9,2l-1.1-3.2c2.2-1.4,5.4-2.3,8.7-2.3c8.1,0,10.1,5.5,10.1,10.8v9.9c0,2.3,0.1,4.5,0.4,6.3 H132.1z M131.4,84.4c-5.3-0.1-11.2,0.8-11.2,5.9c0,3.1,2.1,4.6,4.5,4.6c3.4,0,5.6-2.2,6.4-4.4c0.2-0.5,0.3-1,0.3-1.5V84.4z"/><path fill="#FFFFFF" d="M146.6,63.9v7.6h6.9v3.7h-6.9v14.2c0,3.3,0.9,5.1,3.6,5.1c1.3,0,2.2-0.2,2.8-0.3l0.2,3.6 c-0.9,0.4-2.4,0.7-4.3,0.7c-2.2,0-4-0.7-5.2-2c-1.4-1.4-1.9-3.8-1.9-6.9V75.1h-4.1v-3.7h4.1v-6.3L146.6,63.9z"/><path fill="#FFFFFF" d="M171.4,97.8l-0.4-3.3h-0.2c-1.5,2.1-4.3,3.9-8.1,3.9c-5.4,0-8.1-3.8-8.1-7.6c0-6.4,5.7-9.9,15.9-9.8v-0.5 c0-2.2-0.6-6.1-6-6.1c-2.5,0-5,0.8-6.9,2l-1.1-3.2c2.2-1.4,5.4-2.3,8.7-2.3c8.1,0,10.1,5.5,10.1,10.8v9.9c0,2.3,0.1,4.5,0.4,6.3 H171.4z M170.7,84.4c-5.3-0.1-11.2,0.8-11.2,5.9c0,3.1,2.1,4.6,4.5,4.6c3.4,0,5.6-2.2,6.4-4.4c0.2-0.5,0.3-1,0.3-1.5V84.4z"/></g></g></a></g><a href="https://ourworldindata.org/grapher/total-disease-burden-by-cause" target="_blank"><text font-size="27.00" x="15.0" y="36.6" fill="#555"><tspan x="15" y="36.6">Total disease burden by cause, World</tspan></text></a><text font-size="14.40" x="15.0" y="55.5" fill="#666"><tspan x="15" y="55.519999999999996">Total disease burden measured as the number of DALYs (Disability-Adjusted Life Years) lost per year. DALYs are</tspan><tspan x="15" y="71.36">used to measure total burden of disease - both from years of life lost and years lived with a disability. One DALY</tspan><tspan x="15" y="87.2">equals one lost year of healthy life.</tspan></text></g><g class="StackedArea"><defs><clipPath id="boundsClip-2"><rect x="97.598" y="0" width="820" height="894.2"></rect></clipPath></defs><g class="AxisBoxView"><g class="HorizontalAxis"><text x="97.6" y="556.5" fill="#666" text-anchor="middle" font-size="16.2">1990</text><text x="211.7" y="556.5" fill="#666" text-anchor="middle" font-size="16.2">1995</text><text x="325.7" y="556.5" fill="#666" text-anchor="middle" font-size="16.2">2000</text><text x="439.8" y="556.5" fill="#666" text-anchor="middle" font-size="16.2">2005</text><text x="553.9" y="556.5" fill="#666" text-anchor="middle" font-size="16.2">2010</text><text x="690.7" y="556.5" fill="#666" text-anchor="middle" font-size="16.2">2016</text></g><g class="VerticalAxis"><text x="92.60" y="535.3" fill="#666" dominant-baseline="middle" text-anchor="end" font-size="16.2">0</text><text x="92.60" y="450.8" fill="#666" dominant-baseline="middle" text-anchor="end" font-size="16.2">500 million</text><text x="92.60" y="366.3" fill="#666" dominant-baseline="middle" text-anchor="end" font-size="16.2">1 billion</text><text x="92.60" y="281.8" fill="#666" dominant-baseline="middle" text-anchor="end" font-size="16.2">1.5 billion</text><text x="92.60" y="197.3" fill="#666" dominant-baseline="middle" text-anchor="end" font-size="16.2">2 billion</text><text x="92.60" y="112.8" fill="#666" dominant-baseline="middle" text-anchor="end" font-size="16.2">2.5 billion</text></g><g class="AxisGridLines"><line x1="97.60" y1="535.3" x2="690.73" y2="535.3" stroke="#ccc"></line><line x1="97.60" y1="450.8" x2="690.73" y2="450.8" stroke="#ddd" stroke-dasharray="3,2"></line><line x1="97.60" y1="366.3" x2="690.73" y2="366.3" stroke="#ddd" stroke-dasharray="3,2"></line><line x1="97.60" y1="281.8" x2="690.73" y2="281.8" stroke="#ddd" stroke-dasharray="3,2"></line><line x1="97.60" y1="197.3" x2="690.73" y2="197.3" stroke="#ddd" stroke-dasharray="3,2"></line><line x1="97.60" y1="112.8" x2="690.73" y2="112.8" stroke="#ddd" stroke-dasharray="3,2"></line></g><g class="AxisGridLines"><line x1="97.6" y1="535.30" x2="97.6" y2="109.40" stroke="#ddd" stroke-dasharray="3,2"></line><line x1="211.7" y1="535.30" x2="211.7" y2="109.40" stroke="#ddd" stroke-dasharray="3,2"></line><line x1="325.7" y1="535.30" x2="325.7" y2="109.40" stroke="#ddd" stroke-dasharray="3,2"></line><line x1="439.8" y1="535.30" x2="439.8" y2="109.40" stroke="#ddd" stroke-dasharray="3,2"></line><line x1="553.9" y1="535.30" x2="553.9" y2="109.40" stroke="#ddd" stroke-dasharray="3,2"></line><line x1="667.9" y1="535.30" x2="667.9" y2="109.40" stroke="#ddd" stroke-dasharray="3,2"></line></g></g><g clip-path="url(#boundsClip-2)"><g class="HeightedLegend clickable"><g class="legendMark"><rect x="695.728" y="145.60000000000002" width="61.51200000000001" height="14.4" fill="#fff" opacity="0"></rect><rect x="695.728" y="151.55" width="10" height="2.5" fill="#818282"></rect><text font-size="14.40" x="710.7" y="157.1" fill="#333"><tspan x="710.728" y="157.12000000000003">Injuries</tspan></text></g><g class="legendMark"><rect x="695.728" y="200.35000000000002" width="138.84000000000003" height="60.9" fill="#fff" opacity="0"></rect><rect x="695.728" y="229.55" width="10" height="2.5" fill="#e6332e"></rect><text font-size="14.40" x="710.7" y="211.9" fill="#333"><tspan x="710.728" y="211.87000000000003">Communicable,</tspan><tspan x="710.728" y="227.71000000000004">maternal, neonatal,</tspan><tspan x="710.728" y="243.55000000000004">and nutritional</tspan><tspan x="710.728" y="259.39000000000004">diseases</tspan></text></g><g class="legendMark"><rect x="695.728" y="396.35" width="139.27200000000002" height="29.900000000000002" fill="#fff" opacity="0"></rect><rect x="695.728" y="410.05" width="10" height="2.5" fill="#3360a9"></rect><text font-size="14.40" x="710.7" y="407.9" fill="#333"><tspan x="710.728" y="407.87">Non-communicable</tspan><tspan x="710.728" y="423.71">diseases (NCDs)</tspan></text></g></g><g class="Areas"><rect x="97.598" y="109.4" width="593.13" height="425.9000000000001" opacity="0" fill="rgba(255,255,255,0)"></rect><path stroke-linecap="round" d="M97.6 353.7L120.4 351.3L143.2 347.8L166 343.8L188.8 340.1L211.7 337.5L234.5 335.8L257.3 333.9L280.1 331.8L302.9 328.8L325.7 325.9L348.5 323.5L371.4 320.9L394.2 319.1L417 317.3L439.8 314.6L462.6 313.6L485.4 311.8L508.2 309.4L531 307.1L553.9 304.3L576.7 302.4L599.5 299.9L622.3 297L645.1 293.7L667.9 290.5L690.7 287.2L690.728 535.3000000000001L97.598 535.3000000000001" fill="#3360a9" fill-opacity="0.7" class="World_0-area"></path><path stroke-linecap="round" d="M97.6 165.4L120.4 165.3L143.2 164.2L166 162.2L188.8 160.1L211.7 158.2L234.5 158.4L257.3 158.8L280.1 158.5L302.9 157L325.7 155.3L348.5 154.9L371.4 154.1L394.2 155.1L417 155.9L439.8 156L462.6 158.3L485.4 160.2L508.2 161.4L531 162.9L553.9 163.7L576.7 166.4L599.5 168.7L622.3 170.6L645.1 172L667.9 173.7L690.7 174.4L690.7 287.2L667.9 290.5L645.1 293.7L622.3 297L599.5 299.9L576.7 302.4L553.9 304.3L531 307.1L508.2 309.4L485.4 311.8L462.6 313.6L439.8 314.6L417 317.3L394.2 319.1L371.4 320.9L348.5 323.5L325.7 325.9L302.9 328.8L280.1 331.8L257.3 333.9L234.5 335.8L211.7 337.5L188.8 340.1L166 343.8L143.2 347.8L120.4 351.3L97.6 353.7" fill="#e6332e" fill-opacity="0.7" class="World_1-area"></path><path stroke-linecap="round" d="M97.6 121.5L120.4 120.1L143.2 120.5L166 117.4L188.8 109.7L211.7 113L234.5 113L257.3 113.5L280.1 113L302.9 111.1L325.7 110.3L348.5 110.3L371.4 109.6L394.2 110.3L417 109.4L439.8 111.3L462.6 114.4L485.4 116.1L508.2 115.5L531 119.2L553.9 118.4L576.7 122.6L599.5 125.1L622.3 127L645.1 128L667.9 129.7L690.7 131.2L690.7 174.4L667.9 173.7L645.1 172L622.3 170.6L599.5 168.7L576.7 166.4L553.9 163.7L531 162.9L508.2 161.4L485.4 160.2L462.6 158.3L439.8 156L417 155.9L394.2 155.1L371.4 154.1L348.5 154.9L325.7 155.3L302.9 157L280.1 158.5L257.3 158.8L234.5 158.4L211.7 158.2L188.8 160.1L166 162.2L143.2 164.2L120.4 165.3L97.6 165.4" fill="#818282" fill-opacity="0.7" class="World_2-area"></path><path stroke-linecap="round" d="M97.6 353.7L120.4 351.3L143.2 347.8L166 343.8L188.8 340.1L211.7 337.5L234.5 335.8L257.3 333.9L280.1 331.8L302.9 328.8L325.7 325.9L348.5 323.5L371.4 320.9L394.2 319.1L417 317.3L439.8 314.6L462.6 313.6L485.4 311.8L508.2 309.4L531 307.1L553.9 304.3L576.7 302.4L599.5 299.9L622.3 297L645.1 293.7L667.9 290.5L690.7 287.2" stroke="rgb(43, 80, 141)" stroke-opacity="0.7" stroke-width="0.5" fill="none" class="World_0-border"></path><path stroke-linecap="round" d="M97.6 165.4L120.4 165.3L143.2 164.2L166 162.2L188.8 160.1L211.7 158.2L234.5 158.4L257.3 158.8L280.1 158.5L302.9 157L325.7 155.3L348.5 154.9L371.4 154.1L394.2 155.1L417 155.9L439.8 156L462.6 158.3L485.4 160.2L508.2 161.4L531 162.9L553.9 163.7L576.7 166.4L599.5 168.7L622.3 170.6L645.1 172L667.9 173.7L690.7 174.4" stroke="rgb(192, 43, 38)" stroke-opacity="0.7" stroke-width="0.5" fill="none" class="World_1-border"></path><path stroke-linecap="round" d="M97.6 121.5L120.4 120.1L143.2 120.5L166 117.4L188.8 109.7L211.7 113L234.5 113L257.3 113.5L280.1 113L302.9 111.1L325.7 110.3L348.5 110.3L371.4 109.6L394.2 110.3L417 109.4L439.8 111.3L462.6 114.4L485.4 116.1L508.2 115.5L531 119.2L553.9 118.4L576.7 122.6L599.5 125.1L622.3 127L645.1 128L667.9 129.7L690.7 131.2" stroke="rgb(108, 109, 109)" stroke-opacity="0.7" stroke-width="0.5" fill="none" class="World_2-border"></path></g></g></g><g style="fill: #777;" class="SourcesFooter"><g style="fill: #777;" class="clickable"><text font-size="12.60" x="15.0" y="581.6"><tspan x="15" y="581.58">Source: IHME, Global Burden of Disease</tspan></text></g><text font-size="12.60" x="649.0" y="581.6"><tspan x="649.024" y="581.58"><a target='_blank' style='fill: #777;' href='https://ourworldindata.org'>OurWorldInData.org</a> • <a style="fill: #777;" href="http://creativecommons.org/licenses/by-sa/4.0/deed.en_US" target="_blank">CC BY-SA</a></tspan></text></g></g></svg>
